src/images/mit-logo.svg

<svg height="140" viewBox="0 0 400 206.8" width="400" xmlns="http://www.w3.org/2000/svg"><g fill-rule="evenodd"><path d="m44.156 103.413c0 56.933.024 80.225.053 51.758s.029-75.049 0-103.516-.053-5.176-.053 51.758"/><path d="m212.784 66.132c-.035.086-.017 31.8.04 70.476l.104 70.321-.001-70.373c0-46.719.069-70.401.206-70.459.114-.048.096-.094-.039-.103-.136-.009-.275.053-.31.138" fill="#878787"/><path d="m212.784 66.132c-.035.086-.017 31.8.04 70.476l.104 70.321-.001-70.373c0-46.719.069-70.401.206-70.459.114-.048.096-.094-.039-.103-.136-.009-.275.053-.31.138" fill="#878787"/><path d="m256.979 136.505c0 38.733.024 54.578.053 35.212.029-19.367.029-51.058 0-70.424-.029-19.367-.053-3.522-.053 35.212" fill="#868686"/><path d="m43.95 103.413c0 56.933.023 80.225.052 51.758s.029-75.049 0-103.516-.052-5.176-.052 51.758" fill="#8e001c"/><path d="m329.368 136.608c0 38.676.024 54.529.053 35.229.029-19.301.029-50.945 0-70.321s-.053-3.584-.053 35.092" fill="#990a1f"/><path d="m212.716 20.476c0 11.318.025 15.949.055 10.289.031-5.659.031-14.92 0-20.579-.03-5.659-.055-1.029-.055 10.29" fill="#970828"/><path d="m256.976 20.372c0 11.262.025 15.839.056 10.171s.031-14.882 0-20.476-.056-.956-.056 10.305" fill="#9e0c24"/><path d="m43.743 103.413c0 56.933.023 80.225.052 51.758s.029-75.049 0-103.516-.052-5.176-.052 51.758m27.3-33.092c0 38.733.024 54.578.053 35.212.029-19.367.029-51.058 0-70.424-.029-19.367-.053-3.522-.053 35.212m43.847-.207c0 38.619.024 54.418.053 35.108.029-19.309.029-50.907 0-70.217s-.053-3.511-.053 35.109m214.1-3.585c-.234.233-.165 140.296.069 140.296.137 0 .207-23.543.207-70.217 0-38.619-.031-70.217-.069-70.217s-.131.062-.207.138" fill="#9e152f"/><path d="m185.832 103.413c0 56.933.023 80.225.052 51.758s.029-75.049 0-103.516-.052-5.176-.052 51.758m99.275 33.298c0 38.62.024 54.419.053 35.109s.029-50.907 0-70.217-.053-3.511-.053 35.108" fill="#a01129"/><path d="m186.038 103.413c0 56.933.024 80.225.053 51.758s.029-75.049 0-103.516-.053-5.176-.053 51.758" fill="#a30723"/><path d="m70.63 70.321c0 38.733.023 54.578.053 35.212.029-19.367.029-51.058 0-70.424-.03-19.367-.053-3.522-.053 35.212" fill="#a20017"/><path d="m70.836 70.321c0 38.733.024 54.578.053 35.212.029-19.367.029-51.058 0-70.424-.029-19.367-.053-3.522-.053 35.212m141.987-50.052c0 13.375.071 20.269.207 20.269s.207-6.894.207-20.269-.071-20.269-.207-20.269-.207 6.894-.207 20.269m-130.749 120.734c5.952.031 15.631.031 21.51 0 5.878-.03 1.008-.055-10.823-.055-11.83 0-16.64.025-10.687.055" fill="#a2132d"/><path d="m285.105 20.269c0 11.205.025 15.788.055 10.186.031-5.602.031-14.77 0-20.372-.03-5.603-.055-1.019-.055 10.186" fill="#a3122b"/><path d="m0 103.413v103.412h21.82 21.82v-103.412-103.413h-21.82-21.82zm71.097-32.991-.053 70.422 21.686.054c20.151.05 21.698.029 21.872-.295.109-.205.186-29.239.186-70.476v-70.127h-21.819-21.82zm70.785 32.991v103.412h21.924 21.923v-103.412-103.413h-21.923-21.924zm71.305-82.989c-.029 11.233-.02 20.54.02 20.683.078.272 42.639.403 43.343.133.295-.114.327-2.129.327-20.683v-20.557h-21.818-21.818zm72.025.01c0 15.618.058 20.493.248 20.683.192.192 13.223.248 57.394.248h57.146v-20.682-20.683h-57.394-57.394zm.363 45.559c-.342.199-.361 3.866-.362 70.521l-.002 70.311h21.82 21.821v-70.101c0-52.66.059-70.138.238-70.249.165-.102.121-.233-.143-.426-.482-.353-42.768-.407-43.372-.056" fill="#a41931"/><path d="m213.133 66.019c-.137.151-.189 23.873-.154 70.517l.052 70.289h21.923 21.923v-70.313c0-69.305-.006-70.316-.4-70.527-.579-.31-43.061-.277-43.344.034m-.414 70.692c0 38.62.023 54.419.052 35.109.03-19.31.03-50.907 0-70.217-.029-19.31-.052-3.511-.052 35.108" fill="#8b8c8d"/></g></svg>

<?xml version="1.0" standalone="yes"?><svg xmlns="http://www.w3.org/2000/svg" xmlns:xlink="http://www.w3.org/1999/xlink" id="svg" version="1.1" width="400px" height="140px" viewBox="0 0 400 206.79999999999998" style="zoom: 1;"><g id="svgg"><path id="path0" d="M44.156 103.413 C 44.156 160.346,44.180 183.638,44.209 155.171 C 44.238 126.704,44.238 80.122,44.209 51.655 C 44.180 23.188,44.156 46.479,44.156 103.413" stroke="none" fill="#000000" fill-rule="evenodd"></path><path id="path1" d="" stroke="none" fill="#555555" fill-rule="evenodd"></path><path id="path2" d="" stroke="none" fill="#626262" fill-rule="evenodd"></path><path id="path3" d="" stroke="none" fill="#747474" fill-rule="evenodd"></path><path id="path4" d="" stroke="none" fill="#797979" fill-rule="evenodd"></path><path id="path5" d="M212.784 66.132 C 212.749 66.218,212.767 97.932,212.824 136.608 L 212.928 206.929 212.927 136.556 C 212.927 89.837,212.996 66.155,213.133 66.097 C 213.247 66.049,213.229 66.003,213.094 65.994 C 212.958 65.985,212.819 66.047,212.784 66.132" stroke="none" fill="#878787" fill-rule="evenodd"></path><path id="path6" d="M212.784 66.132 C 212.749 66.218,212.767 97.932,212.824 136.608 L 212.928 206.929 212.927 136.556 C 212.927 89.837,212.996 66.155,213.133 66.097 C 213.247 66.049,213.229 66.003,213.094 65.994 C 212.958 65.985,212.819 66.047,212.784 66.132" stroke="none" fill="#878787" fill-rule="evenodd"></path><path id="path7" d="M256.979 136.505 C 256.979 175.238,257.003 191.083,257.032 171.717 C 257.061 152.350,257.061 120.659,257.032 101.293 C 257.003 81.926,256.979 97.771,256.979 136.505" stroke="none" fill="#868686" fill-rule="evenodd"></path><path id="path8" d="" stroke="none" fill="#6d0000" fill-rule="evenodd"></path><path id="path9" d="M43.950 103.413 C 43.950 160.346,43.973 183.638,44.002 155.171 C 44.031 126.704,44.031 80.122,44.002 51.655 C 43.973 23.188,43.950 46.479,43.950 103.413" stroke="none" fill="#8e001c" fill-rule="evenodd"></path><path id="path10" d="" stroke="none" fill="#940d0d" fill-rule="evenodd"></path><path id="path11" d="M329.368 136.608 C 329.368 175.284,329.392 191.137,329.421 171.837 C 329.450 152.536,329.450 120.892,329.421 101.516 C 329.392 82.140,329.368 97.932,329.368 136.608" stroke="none" fill="#990a1f" fill-rule="evenodd"></path><path id="path12" d="M212.716 20.476 C 212.716 31.794,212.741 36.425,212.771 30.765 C 212.802 25.106,212.802 15.845,212.771 10.186 C 212.741 4.527,212.716 9.157,212.716 20.476" stroke="none" fill="#970828" fill-rule="evenodd"></path><path id="path13" d="" stroke="none" fill="#990011" fill-rule="evenodd"></path><path id="path14" d="" stroke="none" fill="#990000" fill-rule="evenodd"></path><path id="path15" d="M256.976 20.372 C 256.976 31.634,257.001 36.211,257.032 30.543 C 257.063 24.875,257.063 15.661,257.032 10.067 C 257.001 4.473,256.976 9.111,256.976 20.372" stroke="none" fill="#9e0c24" fill-rule="evenodd"></path><path id="path16" d="" stroke="none" fill="#9d152f" fill-rule="evenodd"></path><path id="path17" d="M43.743 103.413 C 43.743 160.346,43.766 183.638,43.795 155.171 C 43.824 126.704,43.824 80.122,43.795 51.655 C 43.766 23.188,43.743 46.479,43.743 103.413 M71.043 70.321 C 71.043 109.054,71.067 124.899,71.096 105.533 C 71.125 86.166,71.125 54.475,71.096 35.109 C 71.067 15.742,71.043 31.587,71.043 70.321 M114.890 70.114 C 114.890 108.733,114.914 124.532,114.943 105.222 C 114.972 85.913,114.972 54.315,114.943 35.005 C 114.914 15.695,114.890 31.494,114.890 70.114 M328.990 66.529 C 328.756 66.762,328.825 206.825,329.059 206.825 C 329.196 206.825,329.266 183.282,329.266 136.608 C 329.266 97.989,329.235 66.391,329.197 66.391 C 329.159 66.391,329.066 66.453,328.990 66.529" stroke="none" fill="#9e152f" fill-rule="evenodd"></path><path id="path18" d="" stroke="none" fill="#9f142f" fill-rule="evenodd"></path><path id="path19" d="M185.832 103.413 C 185.832 160.346,185.855 183.638,185.884 155.171 C 185.913 126.704,185.913 80.122,185.884 51.655 C 185.855 23.188,185.832 46.479,185.832 103.413 M285.107 136.711 C 285.107 175.331,285.131 191.130,285.160 171.820 C 285.189 152.510,285.189 120.913,285.160 101.603 C 285.131 82.293,285.107 98.092,285.107 136.711" stroke="none" fill="#a01129" fill-rule="evenodd"></path><path id="path20" d="M186.038 103.413 C 186.038 160.346,186.062 183.638,186.091 155.171 C 186.120 126.704,186.120 80.122,186.091 51.655 C 186.062 23.188,186.038 46.479,186.038 103.413" stroke="none" fill="#a30723" fill-rule="evenodd"></path><path id="path21" d="M70.630 70.321 C 70.630 109.054,70.653 124.899,70.683 105.533 C 70.712 86.166,70.712 54.475,70.683 35.109 C 70.653 15.742,70.630 31.587,70.630 70.321" stroke="none" fill="#a20017" fill-rule="evenodd"></path><path id="path22" d="M70.836 70.321 C 70.836 109.054,70.860 124.899,70.889 105.533 C 70.918 86.166,70.918 54.475,70.889 35.109 C 70.860 15.742,70.836 31.587,70.836 70.321 M212.823 20.269 C 212.823 33.644,212.894 40.538,213.030 40.538 C 213.166 40.538,213.237 33.644,213.237 20.269 C 213.237 6.894,213.166 0.000,213.030 0.000 C 212.894 0.000,212.823 6.894,212.823 20.269 M82.074 141.003 C 88.026 141.034,97.705 141.034,103.584 141.003 C 109.462 140.973,104.592 140.948,92.761 140.948 C 80.931 140.948,76.121 140.973,82.074 141.003" stroke="none" fill="#a2132d" fill-rule="evenodd"></path><path id="path23" d="" stroke="none" fill="#a2132c" fill-rule="evenodd"></path><path id="path24" d="" stroke="none" fill="#a2132b" fill-rule="evenodd"></path><path id="path25" d="M285.105 20.269 C 285.105 31.474,285.130 36.057,285.160 30.455 C 285.191 24.853,285.191 15.685,285.160 10.083 C 285.130 4.480,285.105 9.064,285.105 20.269" stroke="none" fill="#a3122b" fill-rule="evenodd"></path><path id="path26" d="M0.000 103.413 L 0.000 206.825 21.820 206.825 L 43.640 206.825 43.640 103.413 L 43.640 0.000 21.820 0.000 L 0.000 0.000 0.000 103.413 M71.097 70.422 L 71.044 140.844 92.730 140.898 C 112.881 140.948,114.428 140.927,114.602 140.603 C 114.711 140.398,114.788 111.364,114.788 70.127 L 114.788 0.000 92.969 0.000 L 71.149 0.000 71.097 70.422 M141.882 103.413 L 141.882 206.825 163.806 206.825 L 185.729 206.825 185.729 103.413 L 185.729 0.000 163.806 0.000 L 141.882 0.000 141.882 103.413 M213.187 20.424 C 213.158 31.657,213.167 40.964,213.207 41.107 C 213.285 41.379,255.846 41.510,256.550 41.240 C 256.845 41.126,256.877 39.111,256.877 20.557 L 256.877 0.000 235.059 0.000 L 213.241 0.000 213.187 20.424 M285.212 20.434 C 285.212 36.052,285.270 40.927,285.460 41.117 C 285.652 41.309,298.683 41.365,342.854 41.365 L 400.000 41.365 400.000 20.683 L 400.000 0.000 342.606 0.000 L 285.212 0.000 285.212 20.434 M285.575 65.993 C 285.233 66.192,285.214 69.859,285.213 136.514 L 285.211 206.825 307.031 206.825 L 328.852 206.825 328.852 136.724 C 328.852 84.064,328.911 66.586,329.090 66.475 C 329.255 66.373,329.211 66.242,328.947 66.049 C 328.465 65.696,286.179 65.642,285.575 65.993" stroke="none" fill="#a41931" fill-rule="evenodd"></path><path id="path27" d="" stroke="none" fill="#aa0f2d" fill-rule="evenodd"></path><path id="path28" d="" stroke="none" fill="#b10014" fill-rule="evenodd"></path><path id="path29" d="" stroke="none" fill="#80808f" fill-rule="evenodd"></path><path id="path30" d="M213.133 66.019 C 212.996 66.170,212.944 89.892,212.979 136.536 L 213.031 206.825 234.954 206.825 L 256.877 206.825 256.877 136.512 C 256.877 67.207,256.871 66.196,256.477 65.985 C 255.898 65.675,213.416 65.708,213.133 66.019 M212.719 136.711 C 212.719 175.331,212.742 191.130,212.771 171.820 C 212.801 152.510,212.801 120.913,212.771 101.603 C 212.742 82.293,212.719 98.092,212.719 136.711" stroke="none" fill="#8b8c8d" fill-rule="evenodd"></path><path id="path31" d="" stroke="none" fill="#ff0000" fill-rule="evenodd"></path></g></svg>
